X: 3392
T: AWAY WITH MELANCHOLY
%R: air, march
B: James Kerr "Merry Melodies" v.3 p.43 #392
Z: 2016 John Chambers <jc:trillian.mit.edu>
M: 2/4
L: 1/16
K: G
(udc) |\
B2B2B2B2 | d2c2 z2cB | A2A2A2A2 | c2B2 z2Bc |\
d2d2d2d2 | c3de2c2 | BBB2 AAA2 | G2B2G2 :|
|: (cB) |\
A2A2A2A2 | c2B2 z2B2 | c2c2c2c2 | c2B2 z2Bc |\
d2d2d2d2 | e3fg2c2 | BBB2 AAA2 | G2B2G2 :|

%%sep 1 1 500
%%sep 1 1 500

